X:1
%
T:Humours of Ballinafad [3]
M:6/8
L:1/8
R:Jig
S:James Goodman (1828?1896) music manuscript collection,
S:vol. 3, p. 90. Mid-19th century, County Cork
Z:AK/Fiddler’s Companion
K:Amin
cAA BGE|GEG GAB|cAA BGE|d2d ded|
cAA BGE|GFG GAB|cde dcB|cAA A2:|
|:cde geg|geg ged|cde aea|aea age|
cde geg|geg ged|cde dcB|cAA A2:|]

